X: 14415
T: Galway Loaf, The
R: reel
M: 4/4
K: Eminor
BE z B ~E3 B|~E2 GA BAGE|BE z B ~E3 B|AGED ~E3 B|
DEBA B3 d|e2 ga bage|Beed B2 AG|1 g f3 z2 ed:|2 F4 z2 B/c/d||
|:e3 g edBA|B2 B2 A ~E3|e3 g edBA|BAGE GAB/c/d|
(3e2e2e2 edBA|~B2 AG A ~F3|e2 ga bage|1 B e2 d BABd:|2 B e2 d B4-||

